Resources/Public/Icons/solid/calendar-plus.svg

<svg xmlns="http://www.w3.org/2000/svg" viewBox="0 0 448 512"><!--! Font Awesome Free 6.6.0 by @fontawesome - https://fontawesome.com License - https://fontawesome.com/license/free (Icons: CC BY 4.0, Fonts: SIL OFL 1.1, Code: MIT License) Copyright 2024 Fonticons, Inc. --><path d="M96 32l0 32L48 64C21.5 64 0 85.5 0 112l0 48 448 0 0-48c0-26.5-21.5-48-48-48l-48 0 0-32c0-17.7-14.3-32-32-32s-32 14.3-32 32l0 32L160 64l0-32c0-17.7-14.3-32-32-32S96 14.3 96 32zM448 192L0 192 0 464c0 26.5 21.5 48 48 48l352 0c26.5 0 48-21.5 48-48l0-272zM224 248c13.3 0 24 10.7 24 24l0 56 56 0c13.3 0 24 10.7 24 24s-10.7 24-24 24l-56 0 0 56c0 13.3-10.7 24-24 24s-24-10.7-24-24l0-56-56 0c-13.3 0-24-10.7-24-24s10.7-24 24-24l56 0 0-56c0-13.3 10.7-24 24-24z"/></svg>

<svg xmlns="http://www.w3.org/2000/svg" viewBox="0 0 448 512"><!--! Font Awesome Free 6.5.1 by @fontawesome - https://fontawesome.com License - https://fontawesome.com/license/free (Icons: CC BY 4.0, Fonts: SIL OFL 1.1, Code: MIT License) Copyright 2023 Fonticons, Inc. --><path d="M96 32V64H48C21.5 64 0 85.5 0 112v48H448V112c0-26.5-21.5-48-48-48H352V32c0-17.7-14.3-32-32-32s-32 14.3-32 32V64H160V32c0-17.7-14.3-32-32-32S96 14.3 96 32zM448 192H0V464c0 26.5 21.5 48 48 48H400c26.5 0 48-21.5 48-48V192zM224 248c13.3 0 24 10.7 24 24v56h56c13.3 0 24 10.7 24 24s-10.7 24-24 24H248v56c0 13.3-10.7 24-24 24s-24-10.7-24-24V376H144c-13.3 0-24-10.7-24-24s10.7-24 24-24h56V272c0-13.3 10.7-24 24-24z"/></svg>
